Obsidian-SemiLight/actions/24s/kmouth-phrase-new.svg

<svg viewBox="0 0 24 24" xmlns="http://www.w3.org/2000/svg"><path d="m5 5v10l3 4v-3-1h13v-10zm1 1h14v8h-14zm12 10v2h-2v1h2v2h1v-2h2v-1h-2v-2z" fill="#4d4d4d"/></svg>

<svg xmlns="http://www.w3.org/2000/svg" viewBox="0 0 24 24">
  <defs id="defs3051">
    <style type="text/css" id="current-color-scheme">
      .ColorScheme-Text {
        color:#4d4d4d;
      }
      </style>
  </defs>
 <path style="fill:currentColor;fill-opacity:1;stroke:none" 
     d="M 5 5 L 5 15 L 8 19 L 8 16 L 8 15 L 21 15 L 21 5 L 5 5 z M 6 6 L 20 6 L 20 14 L 6 14 L 6 6 z M 18 16 L 18 18 L 16 18 L 16 19 L 18 19 L 18 21 L 19 21 L 19 19 L 21 19 L 21 18 L 19 18 L 19 16 L 18 16 z "
     class="ColorScheme-Text"
     />
</svg>
